X:1
T:Title
T:I surrender All
T: Winfield S. Weeden Judson W. Van DeVenter Arranged for Ukulele by Moustro 
T:for low 4th string ukulele tuning
C:Composer
%%score 1 2
L:1/8
Q:1/4=70
M:4/4
K:F
V:1 treble nm="Piano"
V:2 tab stafflines=4 strings=G4,C4,E4,A4 nm="Ukulele (Tablature)"
V:1
 A3 A B2 A2 | G3 G A2 G2 | F3 F B2 A2 | G2 A2 F4 | A3 A B2 A2 | G3 G A2 G2 | F3 F B2 A2 | %7
w: All to Je- sus|I surr- en- der|all to him I|free- ly give|I will ev- er|love and trust him|In his pre- sence|
 G2 A2 F4 | f3 e d2 c2 | B8 | e3 d c2 B2 | A8 | A3 B d2 c2 | f3 e e2 d2 | c3 B A2 G2 | F8 |] %16
w: dai- ly live|I surr- en- der|all|I surr- en- der|all|All to Thee my|bless- ed Sav- ior|I surr- en- der|all|
V:2
 [!3!C!2!F!4!A!1!A]3 !1!A [!3!D!2!F!4!B!1!B]2 [!3!C!2!F!4!A!1!A]2 | %1
 [!3!C!2!G!4!B]3 !2!G [!3!C!2!G!1!A!4!B]2 !2!G2 | %2
 [!3!C!2!F!4!A]3 !2!F [!3!D!2!F!4!B!1!B]2 [!3!C!2!F!4!A!1!A]2 | %3
 [!3!C!2!G!4!B]2 [!3!C!2!G!1!A!4!B]2 [!3!C!2!F!4!A]4 | %4
 [!3!C!2!F!4!A!1!A]3 !1!A [!3!_D!2!F!4!G!1!B]2 [!3!C!2!F!4!A!1!A]2 | %5
 [!3!C!2!G!4!B]3 !2!G [!3!^C!2!E!1!A!4!A]2 [!3!C!2!G!4!A]2 | %6
 [!3!D!2!F!4!A]3 !2!F [!3!D!2!F!4!B!1!B]2 [!3!C!2!F!4!A!1!A]2 | %7
 [!3!C!2!G!4!B]2 [!3!C!2!G!1!A!4!B]2 [!3!C!2!F!4!A]4 | %8
 [!3!F!2!A!4!c!1!f]3 !1!e [!3!F!2!A!4!c!1!d]2 [!3!_E!2!^F!4!A!1!c]2 | [!3!D!2!F!4!G!1!B]8 | %10
 [!3!G!2!B!4!c!1!e]3 [!3!E!2!G!4!B!1!d] [!3!E!2!G!4!B!1!c]2 [!3!C!2!E!4!B!1!B]2 | %11
 [!3!C!2!F!4!A!1!A]8 | [!3!C!2!F!4!A!1!A]3 !1!B [!3!F!2!A!4!c!1!d]2 !2!c2 | %13
 [!3!F!2!A!4!c!1!f]3 !1!e [!3!^F!2!A!4!d!1!e]2 [!3!F!2!A!4!c!1!d]2 | %14
 [!3!C!2!F!4!A!1!c]3 [!3!D!2!F!4!B!1!B] [!3!C!2!F!4!A!1!A]2 [!3!C!2!G!4!B]2 | [!3!C!2!F!4!A]8 |] %16

